X:1
T:Clairières dans le ciel
T:Un Poète disait
T:Clairières dans le ciel
T:Lili Boulanger
T:4. Un Poète disait 
T:Francis Jammes
T:à YVONNE BROTHIER
T:Creative Commons copyright waiver (CC0 1.0 Universal)
T:Creative Commons copyright waiver (CC0 1.0 Universal)
T:Creative Commons copyright waiver (CC0 1.0 Universal)
T:Creative Commons copyright waiver (CC0 1.0 Universal)
C:Lili Boulanger
Z:Francis Jammes
Z:Creative Commons copyright waiver (CC0 1.0 Universal)
%%score ( 1 2 ) { 3 | 4 }
L:1/8
Q:1/4=120
M:2/2
K:E
V:1 treble nm="Chant\nVoice"
V:2 treble 
V:3 treble nm="Piano"
V:4 bass 
V:1
"^Sans lenteur" z8 | z8 | z2!p! E E B2 B c | =d3 c"^sans rigueur" B A G A | B4 E2 z2 | %5
w: ||Un po- è- te di-|sait que lors- qu'il é- tait|jeu- ne,|
 z e e e =d3 f | e4- e2 E2 |!<(! F2 F2!<)! A3"^cédez" F |!pp!"^a tempo" c8- | c2 z2 z4 | %10
w: il fleu- ris- sait des|vers _ comme|un ro- sier des|ro-|ses|
 z2!p! (c2 c2!<(! ^^c2 | d6!<)! ^e2 | f8- |!>(! f4!>)! c2) z2 | z2 A A (3B2 B2 c2 | (d6 B2) | %16
w: Lors- que je|pense à|el-|* le,|il me sem- ble que|ja- se|
 z B c"^sans ralentir" c e e f f | g8- |!>(! g4!>)! d2 z2 | z2"^cédez" !tenuto!d4 !tenuto!B2 | %20
w: u- ne fon- tai- ne‿in- ta- ris-|\- sa-|* ble|dans mon|
"^a tempo" !tenuto!d8- | d2 z2 z4 | z2!mf!"^contenu et vibrant" ^A4!<(! G2 | B2!<)! B2 ^A4 | %24
w: cœur|_|Com- me|sur le lys|
 d6!<(! ^A2 | B2!<)! B2"^sans rigueur" =d2!>(! d2!>)! |!p! =g8- |!>(! g4!>)! _B2 z2 | %28
w: Dieu pose|un par- fum d'é-|\- gli-|* se,|
 z2 ^c4!<(! =B2 | =d4!<)! c2 c2 | f6!<(! c2 | =d2 d2!<)! =f2 f2 |!f! a8- |!>(! a4!>)! c2 z2 | %34
w: Comme il|met du co-|rail aux|joues de la ce-|\- ri-|* se,|
 z2 =G2!<(! _B2 B2 | _d6!<)!!>(! =e2!>)! |!p!!<(! e8-!<)! |!>(! e4!>)! B2 z2 || %38
w: je veux po-|\- ser sur|el-|* le,|
[M:4/4][Q:1/2=60] z!f! (G B3 B!>(! c A!>)! |!p! e6- e) z | %40
w: a- vec dé- vo- ti-|on, _|
 z"^avec un profonde émotion"!p! (=G/ G/ A-A/ z/ z/ _B B/ A2) | %41
w: la cou- leur _ d'un par- fum|
 z!<(! (=G A A!<)! =B3)!>(! (^d!>)! ||[M:2/2]!ppp!"^a tempo" g8-) | g8- | g8- | g z z2 z4 |] %46
w: qui n'au- ra pas de|nom|_|||
V:2
 x8 | x8 | x8 | x8 | x8 | x8 | x8 | x8 | x8 | x8 | x8 | x2 x2 x4 | x8 | x8 | x8 | %15
 x2!>(! x2 x4!>)! | x8 | x8 | x8 | x8 | x8 | x8 | x8 | x8 | x8 | x8 | x8 | x8 | x8 | x2 x2 x4 | %30
 x8 | x8 | =f8- | f4 ^c2 x2 | x8 | x2 x2"^cédez" x2 ^c2 | x2 x2 x2 x2 | x8 ||[M:4/4] x8 | x8 | x8 | %41
 x8 ||[M:2/2] x8 | x8 | x8 | x8 |] %46
V:3
!p! (3([EB]B,[EB] (3[=DA]A,!<(![DA]) (3([EB]B,[EB] (3[DA]A,!<)![DA]) | %1
 (3([EB]B,[EB] (3[=DA]A,[DA])!>(! (3([EB]B,[EB] (3[DA]A,[DA])!>)! | z8 | z8 | z8 | z8 | z8 | z8 | %8
 z8 | z8 | z8 | z8 | z8 | z8 | z8 | z8 | z8 | z8 | z8 | z8 | z8 | z8 | z8 | z8 | z8 | z8 | z8 | %27
 z8 | z8 | z8 | z8 | z8 | z8 | z8 | z8 | z8 | z8 | z8 ||[M:4/4] z8 | z8 | z8 | z8 ||[M:2/2] z8 | %43
 z8 | z8 | z8 |] %46
V:4
 (G,2 F,2 G,2 F,2) | (G,2 F,2 G,2 F,2) | z8 | z8 | z8 | z8 | z8 | z8 | z8 | z8 | z8 | z8 | z8 | %13
 z8 | z8 | z8 | z8 | z8 | z8 | z8 | z8 | z8 | z8 | z8 | z8 | z8 | z8 | z8 | z8 | z8 | z8 | z8 | %32
 z8 | z8 | z8 | z8 | z8 | z8 ||[M:4/4] z8 | z8 | z8 | z8 ||[M:2/2] z8 | z8 | z8 | z8 |] %46

